src/site/images/flags/gy.svg

<svg height="480" viewBox="0 0 640 480" width="640" xmlns="http://www.w3.org/2000/svg"><g fill-rule="evenodd"><path d="m2.426 0h637.557v480h-637.557z" fill="#399408"/><path d="m.167 0c-.837.073 619.598 241.48 619.598 241.48l-619.77 238.29.171-479.77z" fill="#fff"/><path d="m.28 20.186c3.462 0 559.053 217.89 555.893 220.03l-554.306 223.05-1.58-443.08z" fill="#ffde08"/><path d="m1.863.783c1.848 0 290.94 240.92 290.94 240.92l-290.94 235.28z"/><path d="m.28 33.902c1.658-14.986 260.9 208.4 260.9 208.4l-260.912 209.4v-417.79z" fill="#de2110"/></g></svg>

<svg xmlns="http://www.w3.org/2000/svg" height="480" width="640" viewBox="0 0 640 480">
  <g fill-rule="evenodd">
    <path fill="#399408" d="M2.426 0h637.557v480H2.426z"/>
    <path d="M.167 0C-.67.073 619.765 241.48 619.765 241.48L-.005 479.77.166 0z" fill="#fff"/>
    <path d="M.28 20.186c3.462 0 559.053 217.89 555.893 220.03L1.867 463.266.287 20.186z" fill="#ffde08"/>
    <path d="M1.863.783c1.848 0 290.94 240.92 290.94 240.92L1.863 476.983V.783z"/>
    <path d="M.28 33.902c1.658-14.986 260.9 208.4 260.9 208.4L.268 451.702V33.912z" fill="#de2110"/>
  </g>
</svg>
